X: 4
T: Bonaparte Crossing The Rhine
R: hornpipe
M: 4/4
L: 1/8
K: Ador
A2 A>B A>GE>D | c>de>c d2 e>g | a>ge>d c>AG>E | G>Ec>E G2 E>G |A2 A>B A>GE>D | c>de>c d2 e>g | a>ge>d c>AG>E | A2 A>A A2 :|a>ge>d c>de>f | g>ea>f g2 e>g | a>ge>d c>AG>E | G>Ec>E G2 E>G |c>AB>G A>GE>D | c>de>c d2 e>g | a>ge>d c>AG>E | A2 A2 A2 :|


Tune 7	Setting 12363

